epam-assets/icon-sources/18/linkedin.svg

<svg width="18" height="18" viewBox="0 0 18 18" fill="none" xmlns="http://www.w3.org/2000/svg">
<path d="M14.2807 14.281H12.0582V10.8003C12.0582 9.97031 12.0434 8.90184 10.9022 8.90184C9.74467 8.90184 9.56756 9.80616 9.56756 10.7399V14.2808H7.34503V7.12306H9.47866V8.10124H9.50852C9.72205 7.73614 10.0306 7.43579 10.4013 7.23218C10.772 7.02857 11.191 6.92933 11.6137 6.94502C13.8663 6.94502 14.2816 8.42676 14.2816 10.3544L14.2807 14.281ZM4.83727 6.14465C4.58218 6.1447 4.3328 6.06909 4.12068 5.92741C3.90855 5.78572 3.74321 5.58431 3.64554 5.34864C3.54788 5.11298 3.52229 4.85365 3.57201 4.60344C3.62174 4.35323 3.74453 4.12339 3.92487 3.94298C4.10522 3.76256 4.33501 3.63968 4.58519 3.58986C4.83537 3.54005 5.09471 3.56555 5.3304 3.66313C5.56609 3.76071 5.76755 3.92599 5.90931 4.13807C6.05107 4.35015 6.12676 4.59951 6.1268 4.85461C6.12683 5.02399 6.0935 5.19172 6.02871 5.34822C5.96393 5.50471 5.86895 5.64692 5.7492 5.76671C5.62946 5.8865 5.4873 5.98153 5.33083 6.04638C5.17436 6.11123 5.00665 6.14462 4.83727 6.14465ZM5.94854 14.281H3.72369V7.12306H5.94854V14.281ZM15.3887 1.50102H2.60687C2.31676 1.49775 2.03721 1.60979 1.82966 1.81253C1.62211 2.01526 1.50354 2.29211 1.5 2.58223V15.4175C1.50342 15.7078 1.62192 15.9848 1.82946 16.1878C2.037 16.3907 2.31661 16.503 2.60687 16.4999H15.3887C15.6796 16.5036 15.96 16.3916 16.1683 16.1887C16.3767 15.9857 16.496 15.7084 16.5 15.4175V2.5813C16.4959 2.29061 16.3765 2.01345 16.1681 1.81072C15.9597 1.60798 15.6794 1.49626 15.3887 1.5001V1.50102Z" fill="#6C6F80"/>
</svg>

<svg xmlns="http://www.w3.org/2000/svg" width="18" height="18" fill="none" viewBox="0 0 18 18">
  <path fill="#6C6F80" d="M14.28 14.281h-2.222v-3.48c0-.83-.015-1.9-1.156-1.9-1.157 0-1.334.905-1.334 1.839v3.54H7.345V7.124h2.134v.978h.03a2.338 2.338 0 0 1 2.105-1.156c2.252 0 2.668 1.482 2.668 3.41l-.001 3.926ZM4.838 6.145a1.29 1.29 0 1 1 0-2.58 1.29 1.29 0 0 1 0 2.58ZM5.95 14.28H3.724V7.123h2.225v7.158ZM15.39 1.5H2.607A1.095 1.095 0 0 0 1.5 2.582v12.836A1.096 1.096 0 0 0 2.607 16.5h12.782a1.097 1.097 0 0 0 1.111-1.082V2.58a1.097 1.097 0 0 0-1.111-1.08Z"/>
</svg>
